X: 381
T: Bir Hâlet ile Süzdü Yine
C: Hacı Ârif Bey
O: Turkey
F: http://compmusic.upf.edu/node/140
N: hicazkar--sarki--sofyan--bir_halet--haci_arif_bey
N: makam= hicazkar
N: form= sarki
N: usul= sofyan = 4/4
M: 4/4
L: 1/16
K: C _1/4B _7/8e _7/8A ^f
Q: 1/4=72
%%MIDI tuningsystem comma53
f2g4d2 e3d c4  | defg fedc B3A G4  | \
w:  ARANAĞME  |   | 
G3A B2c2 d2e2 f2ef  | 
w:   | 
g6d2 edef g4  | f2g4d2 e3d c4  | defg fedc B3A G4  | 
w:   |   |   | 
g3f edc2 B3A BAAG  | G12 z4  | f4 g3=a feed d2z2  | 
w:   |   |  Bir  hâ *  let_ *  i *  le   | 
c3d efed dccB c2z2  | d4 e2f2 g3=a fed2  | \
w:  süz *  dü  *  yi *  ne   |  çeş mi ni  dil  | 
=a2gf feed d3c BAG2  | 
w:  dâr   *  *  *  *  *  *  *  SAZ  | 
f4 g3=a feed d2z2  | c3d efed dccB c2z2  | 
w:  Bir  hâ *  let_ *  i *  le   |  süz *  dü  *  yi *  ne   | 
d4 e2f2 g3=a fed2  | =a2gf feed d3g f_7/8ag2  | \
w:  çeş mi ni  dil  |  dâr   *  *  *  *  *  *  *  SAZ  | 
g3=f f3g _a2gf _edc2  | 
w:  Ev *  vel  *  na za *  rı   | 
d3_e =f2ed dcBc d2z2  | B4 c2d2 =f_edc BAG2  | 
w:  et *  ti  be *  ni   |  aş ka  gi rif  | 
d2cB BAAG GABc d_e=fg  | g3=f f3g _a2gf _edc2  | 
w:  târ   *  *  *  *  *  *  *  SAZ  |  Ev *  vel  *  na za *  rı   | 
d3_e =f2ed dcBc d2z2  | B4 c2d2 =f_edc BAG2  | 
w:  et *  ti  be *  ni   |  aş ka  gi rif  | 
d2cB BAAG G3c Bcd2  | c3d d4 efed d3c  | 
w:  târ   *  *  *  *  *  *  *  SAZ  |  Gel  *  ba ri  *  ni *  geh  | 
B4 c2BA G6z2  | d4 e2f2 g3=a fed2  | \
w:  ban lı ğa  *  ey   |  tâ li  i  bî  | 
=a2gf feed d3c BAG2  | 
w:  dâr   *  *  *  *  *  *  *  SAZ  | 
c3d d4 efed d3c  | B4 c2BA G6z2  | d4 e2f2 g3=a fed2  | 
w:  Gel  *  ba ri  *  ni *  geh  |  ban lı ğa  *  ey   |  tâ li  i  bî  | 
=a2gf feed d3g f_7/8ag2  | g3=f f3g _a2gf _edc2  | 
w:  dâr   *  *  *  *  *  *  *  SAZ  |  Nâz_ *  uy *  ku su *  nun   | 
d3_e =f2ed dcBc d2z2  | B4 c2d2 =f_edc BAG2  | 
w:  mes *  ti dir_ *  ol   |  şûh_ i  si tem  | 
d2cB BAAG GABc d_e=fg  | g3=f f3g _a2gf _edc2  | 
w:  kâr   *  *  *  *  *  *  *  SAZ  |  Nâz_ *  uy *  ku su *  nun   | 
d3_e =f2ed dcBc d2z2  | B4 c2d2 =f_edc BAG2  | 
w:  mes *  ti dir_ *  ol   |  şûh_ i  si tem  | 
d2cB BAAG G6z2  | f2g4d2 e3d c4  | defg fedc B3A G4  | 
w:  kâr    |  ARANAĞME  |   | 
G3A B2c2 d2e2 f2ef  | g6d2 edef g4  | \
w:   |   | 
f2g4d2 e3d c4  | 
w:   | 
defg fedc B3A G4  | g3f edc2 B3A BAAG  | 
w:   |   | 
G12 z4  | f4 g3=a feed d2z2  | c3d efed dccB c2z2  | 
w:   |  Bir  hâ *  let_ *  i *  le   |  süz *  dü  *  yi *  ne   | 
d4 e2f2 g3=a fed2  | =a2gf feed d3c BAG2  | \
w:  çeş mi ni  dil  |  dâr   *  *  *  *  *  *  *  SAZ  | 
f4 g3=a feed d2z2  | 
w:  Bir  hâ *  let_ *  i *  le   | 
c3d efed dccB c2z2  | d4 e2f2 g3=a fed2  | \
w:  süz *  dü  *  yi *  ne   |  çeş mi ni  dil  | 
=a2gf feed d3g f_7/8ag2  | 
w:  dâr   *  *  *  *  *  *  *  SAZ  | 
g3=f f3g _a2gf _edc2  | d3_e =f2ed dcBc d2z2  | 
w:  Ev *  vel  *  na za *  rı   |  et *  ti  be *  ni   | 
B4 c2d2 =f_edc BAG2  | d2cB BAAG GABc d_e=fg  | 
w:  aş ka  gi rif  |  târ   *  *  *  *  *  *  *  SAZ  | 
g3=f f3g _a2gf _edc2  | d3_e =f2ed dcBc d2z2  | 
w:  Ev *  vel  *  na za *  rı   |  et *  ti  be *  ni   | 
B4 c2d2 =f_edc BAG2  | d2cB BAAG G3c Bcd2  | 
w:  aş ka  gi rif  |  târ   *  *  *  *  *  *  *  SAZ  | 
c3d d4 efed d3c  | B4 c2BA G6z2  | d4 e2f2 g3=a fed2  | 
w:  Gel  *  ba ri  *  ni *  geh  |  ban lı ğa  *  ey   |  tâ li  i  bî  | 
=a2gf feed d3c BAG2  | c3d d4 efed d3c  | 
w:  dâr   *  *  *  *  *  *  *  SAZ  |  Gel  *  ba ri  *  ni *  geh  | 
B4 c2BA G6z2  | d4 e2f2 g3=a fed2  | \
w:  ban lı ğa  *  ey   |  tâ li  i  bî  | 
=a2gf feed d3g f_7/8ag2  | 
w:  dâr   *  *  *  *  *  *  *  SAZ  | 
g3=f f3g _a2gf _edc2  | d3_e =f2ed dcBc d2z2  | 
w:  Nâz_ *  uy *  ku su *  nun   |  mes *  ti dir_ *  ol   | 
B4 c2d2 =f_edc BAG2  | d2cB BAAG GABc d_e=fg  | 
w:  şûh_ i  si tem  |  kâr   *  *  *  *  *  *  *  SAZ  | 
g3=f f3g _a2gf _edc2  | d3_e =f2ed dcBc d2z2  | 
w:  Nâz_ *  uy *  ku su *  nun   |  mes *  ti dir_ *  ol   | 
B4 c2d2 =f_edc BAG2  | d2cB BAAG G6z2  | |


